X: 75
T:Merry Blacksmith
R:Reel
M:C|
L:1/8
Q:1/2=112
K:D
|d2dA BAFA|ABdA BAFA|ABde fded|Beed egfe|
d2dA BAFA|ABdA BAFA|ABde fdec|dBAF D4:|
|:a2ag f2fe|d2dA BAFA|ABde fded|Beed egfe|
a2ag f2fe|d2dA BAFA|ABde fdec|dBAF D4:|
